X: 44
T: No_144_If_I_Am_Beaten.krn
N: Derived from No_144_If_I_Am_Beaten.krn
%%abc-version 2.0
%%abcx-abcm2ps-target-version 5.9.1 (29 Sep 2008)
%%abc-creator hum2abc beta
%%abcx-conversion-date 2019/03/15 08:29:13
%%humdrum-veritas 1304177848
%%humdrum-veritas-data 1385130266
%%linebreak <none>
%%barnumbers 0
L: 1/8
M: 4/4
%%staves {1 2}
V: 1 clef=bass
V: 2 clef=bass
K: Bb
[V:1] [K:clef=bass][M:4/4]FF(F3D)FD ||  
[V:2] [K:clef=bass][M:4/4]G,,/!accent!G,, z/ G,,/!accent!G,, z/ G,,/!accent!G,, z/ G,,/!accent!G,, z/ ||  
[V:1] [M:2/4]FB,B,2 ||  
[V:2] [M:2/4]z4 ||  
[V:1] [M:3/4]B,6 ||  
[V:2] [M:3/4]z6 ||  
[V:1] [M:4/4]F2D4FD ||  
[V:2] [M:4/4]z8 ||  
[V:1] [M:2/4]FB,B,2 ||  
[V:2] [M:2/4]z4 ||  
[V:1] [M:3/4]B,B,B,4 ||  
[V:2] [M:3/4]z6 ||  
[V:1] [M:4/4]FDB,4(3DB,F, | 
[V:2] [M:4/4]z8 | 
[V:1] (3!accent!F,F,F,F,4D,2 | 
[V:2] z8 | 
[V:1] B,B,DB,F,3D, | 
[V:2] z8 | 
[V:1] (3B,,B,,-B,,B,,6 |]  
[V:2] z8 |]  



